assets/logos/color_logo/atari7800.svg

<?xml version="1.0" encoding="UTF-8"?>
<svg width="475px" height="102px" viewBox="0 0 475 102" version="1.1" xmlns="http://www.w3.org/2000/svg" xmlns:xlink="http://www.w3.org/1999/xlink">
    <title>mainlogo</title>
    <g id="Page-1" stroke="none" stroke-width="1" fill="none" fill-rule="evenodd">
        <g id="mainlogo" fill-rule="nonzero">
            <g id="Group" transform="translate(0.000000, 59.847952)" fill="#FFFFFF">
                <path d="M12.2256839,1.79822218 C13.835733,-0.261660813 17.1682897,-0.613511097 19.1435504,1.11456372 C19.9519153,1.79599528 20.5175481,2.73463386 20.8070451,3.7434198 C24.4636158,16.3276347 28.1368883,28.9051689 31.7890051,41.4882704 C29.6311385,41.4904973 27.471045,41.4849301 25.3142918,41.4904973 C24.2965983,38.0220997 23.3022872,34.545908 22.2979551,31.0730566 C18.12363,31.0619221 13.9526453,31.0697163 9.7794337,31.0674894 C8.7583998,34.5392273 7.74961386,38.0143056 6.74528172,41.4904973 C4.5985496,41.4827032 2.45181749,41.4882704 0.305085373,41.4860435 C3.78016366,29.4841631 7.25858229,17.4778288 10.7492489,5.47928877 C11.1634524,4.22554377 11.3204489,2.82482333 12.2256839,1.79822218 M16.0359108,9.50997873 C14.5049166,14.7231529 13.0062126,19.9452346 11.4852395,25.1617491 C14.518278,25.176224 17.5502031,25.1662029 20.5821282,25.1662029 C19.0644955,19.9474615 17.5546569,14.7276067 16.0359108,9.50997873 Z" id="Shape"></path>
                <path d="M57.6911987,2.0687906 C58.8157835,0.437585955 60.9903519,-0.354077185 62.9054863,0.149202336 C64.6569436,0.553384783 65.9986512,2.06322335 66.460733,3.7634619 C70.1139633,16.3376558 73.7805551,28.9085093 77.4337854,41.4827032 C75.2725784,41.497178 73.1124849,41.4827032 70.9512779,41.4916108 C69.9469458,38.0187594 68.9526347,34.5425676 67.939395,31.0708297 C63.7728641,31.0730566 59.6074466,31.0630356 55.4409157,31.0741701 C54.4454912,34.5492484 53.41889,38.0165325 52.422352,41.4904973 C50.2778468,41.4938377 48.1333416,41.4882704 45.9899498,41.4938377 C49.4628012,29.4240368 52.9757368,17.3631435 56.475311,5.30225017 C56.8427496,4.21106891 56.9852712,3.01076952 57.6911987,2.0687906 M57.1656502,25.1662029 C60.1864408,25.1706567 63.2050044,25.1673164 66.225795,25.1673164 C64.7237506,19.9396674 63.1960968,14.7153587 61.6985062,9.48548283 C60.1897811,14.7131318 58.6665811,19.936327 57.1656502,25.1662029 Z" id="Shape"></path>
                <path d="M26.9577444,0.0868491209 C34.7663712,0.0868491209 42.572771,0.0868491209 50.3791708,0.0868491209 C50.3791708,2.19349703 50.3791708,4.29680458 50.3791708,6.40345249 C47.5042422,6.40567939 44.6304271,6.40011214 41.7566119,6.40567939 C41.7566119,18.0991341 41.7577254,29.7959292 41.7554985,41.4893839 C39.6978424,41.4893839 37.6368459,41.4893839 35.5791898,41.4893839 C35.5791898,29.7959292 35.5769629,18.1002475 35.5803033,6.40567939 C32.7053747,6.40011214 29.832673,6.40567939 26.956631,6.40345249 C26.9577444,4.29680458 26.9555175,2.19238358 26.9577444,0.0868491209 Z" id="Path"></path>
                <path d="M84.2970929,0.344056133 C84.8905618,0.139181283 85.524115,0.0690339166 86.1498741,0.0846222203 C88.6117126,0.0935298225 91.0746646,0.0857356706 93.5342763,0.0879625711 C97.6807651,0.163677189 101.637967,2.73574731 103.431736,6.4680326 C104.673233,8.89090039 104.802393,11.7079296 104.4884,14.3657354 C104.273504,17.149361 103.106608,19.9307598 100.966557,21.7757469 C99.8352913,22.7823059 98.4290036,23.3924767 97.2209101,24.2888041 C96.5561803,24.795424 96.5238902,25.7774871 96.8668329,26.4800743 C100.133696,31.5228905 103.529719,36.4888787 106.865616,41.4893839 C104.42716,41.4938377 101.986477,41.4838166 99.5469077,41.4938377 C96.3535323,36.6970939 93.1935605,31.8758543 90.0135465,27.0724298 C89.0782483,25.7051129 88.8243816,23.8946427 89.3833337,22.3346989 C89.8209196,21.1388533 90.8664494,20.262568 92.0311184,19.8093937 C94.2546786,18.9609446 96.4470622,17.6281446 97.6785382,15.5304043 C98.6160633,13.9526453 98.5670715,12.0063342 98.1450738,10.2804863 C97.6518154,8.03911093 95.4683394,6.27651916 93.160157,6.35446068 C91.5656962,6.36559518 89.970122,6.34555307 88.3778881,6.36225483 C87.6563723,6.34555307 86.9771676,6.97242558 86.9860752,7.70284895 C86.9793945,18.9653984 86.990529,30.2279479 86.9838483,41.4927242 C84.9094905,41.4882704 82.8362461,41.4927242 80.7618883,41.4904973 C80.7574345,29.3650239 80.7641152,17.2395505 80.7574345,5.11296363 C80.7707959,2.98738707 82.2817479,0.988743838 84.2970929,0.344056133 Z" id="Path"></path>
                <path d="M110.126912,0.0868491209 C112.310388,0.0868491209 114.491637,0.0868491209 116.674,0.0868491209 C116.672886,13.8891786 116.678454,27.6881678 116.670659,41.4916108 C114.490524,41.4860435 112.309275,41.4916108 110.126912,41.4893839 C110.126912,27.6870544 110.126912,13.8869517 110.126912,0.0868491209 Z" id="Path"></path>
            </g>
            <path d="M274.480236,48.2424936 C281.881503,43.8698414 286.498009,36.4664017 286.498009,28.2480076 C286.498009,8.83944566 266.050276,0 247.051683,0 C228.050286,0 207.605356,8.83944566 207.605356,28.2480076 C207.605356,36.4692119 212.220461,43.8698414 219.620326,48.2424936 C209.093738,53.1308153 203.204678,61.4545915 203.204678,71.8255895 C203.204678,91.3746608 225.258519,101.602339 247.046077,101.602339 C268.833634,101.602339 290.888883,91.3746608 290.888883,71.8255895 C290.895884,61.4545915 285.005423,53.1266 274.480236,48.2424936 Z M247.053084,38.7231172 C240.796227,38.4754743 238.264343,32.8061321 238.264343,28.9505545 C238.264343,25.0949769 239.404414,17.4759804 247.053084,17.7847738 C254.701754,18.0935673 255.841825,25.0949769 255.841825,28.9505545 C255.839023,32.8061321 253.309942,38.9707602 247.053084,38.7231172 Z M247.053084,59.4529679 C252.447418,59.4529679 256.83408,64.4516567 256.83408,68.8945636 C256.83408,73.1997713 256.093567,80.7251462 247.053084,80.8837293 C238.012601,81.0423125 237.272088,73.2067968 237.272088,68.8945636 C237.272088,64.4516567 241.658751,59.4529679 247.053084,59.4529679 Z" id="Shape" fill="#A7061C"></path>
            <path d="M365.809114,16.4791203 C358.164301,5.70027181 346.932755,0 333.332561,0 C319.732368,0 308.500822,5.69747138 300.856009,16.4791203 C294.429282,25.5469072 290.888889,37.7357714 290.888889,50.8025698 C290.888889,76.0876369 304.01244,101.602339 333.337857,101.602339 C362.663274,101.602339 375.789474,76.0862367 375.789474,50.8025698 C375.78153,37.7343711 372.239813,25.545507 365.809114,16.4791203 Z M334.035113,73.7660819 C324.286405,73.7660819 325.764193,58.6612323 325.764193,51.3714155 C325.764193,44.1508248 324.291455,29.2280702 334.035113,29.2280702 C343.783822,29.2280702 342.304771,44.1508248 342.304771,51.3714155 C342.307296,58.6612323 343.783822,73.7660819 334.035113,73.7660819 Z" id="Shape" fill="#A7061C"></path>
            <path d="M453.493324,16.4791203 C445.848511,5.70027181 434.616965,0 421.016772,0 C407.416578,0 396.185032,5.69747138 388.540219,16.4791203 C382.113492,25.5469072 378.573099,37.7357714 378.573099,50.8025698 C378.573099,76.0876369 391.696651,101.602339 421.022068,101.602339 C450.347485,101.602339 463.473684,76.0862367 463.473684,50.8025698 C463.46574,37.7343711 459.924023,25.545507 453.493324,16.4791203 Z M421.719324,73.7660819 C411.970615,73.7660819 413.448404,58.6612323 413.448404,51.3714155 C413.448404,44.1508248 411.975666,29.2280702 421.719324,29.2280702 C431.468033,29.2280702 429.988981,44.1508248 429.988981,51.3714155 C429.991506,58.6612323 431.468033,73.7660819 421.719324,73.7660819 Z" id="Shape" fill="#A7061C"></path>
            <polygon id="Path" fill="#A7061C" points="125.263158 0 125.263158 30.9773093 167.645968 30.9773093 136.026511 100.210526 171.825625 100.210526 214.339181 0"></polygon>
            <path d="M460.740034,8.87861665 L460.740034,1.32234716 L457.906433,1.32234716 L457.906433,-2.52180343e-13 L465.273796,-2.52180343e-13 L465.273796,1.32234716 L462.062381,1.32234716 L462.062381,8.87861665 L460.740034,8.87861665 Z M466.029422,8.87861665 L466.029422,-2.52180343e-13 L468.296303,-2.52180343e-13 L470.563184,7.17845601 L472.830065,-2.52180343e-13 L474.908039,-2.52180343e-13 L474.908039,8.87861665 L473.585692,8.87861665 L473.585692,1.32234716 L471.318811,8.87861665 L469.996464,8.87861665 L467.540676,1.32234716 L467.540676,8.87861665 L466.029422,8.87861665 Z" id="Shape" fill="#FFFFFF"></path>
            <path d="M125.969203,75.1578947 C127.030422,75.1578947 128.020668,74.9617435 128.93994,74.5694411 C129.859213,74.1771386 130.675405,73.6208131 131.388517,72.9004647 C132.101629,72.1801162 132.650827,71.3566192 133.03611,70.4299738 C133.421393,69.5033283 133.614035,68.5225722 133.614035,67.4877053 C133.614035,66.4460747 133.418014,65.4602457 133.025971,64.5302183 C132.633928,63.6001909 132.086421,62.7834578 131.383448,62.0800189 C130.680475,61.37658 129.862592,60.8287094 128.929801,60.4364069 C127.99701,60.0441044 127.010144,59.8479532 125.969203,59.8479532 C124.935022,59.8479532 123.953225,60.0441044 123.023814,60.4364069 C122.094402,60.8287094 121.271451,61.3799619 120.554959,62.0901647 C119.838467,62.8003674 119.2842,63.6137186 118.892158,64.5302183 C118.500115,65.446718 118.304094,66.432547 118.304094,67.4877053 C118.304094,68.8878193 118.648821,70.172948 119.338275,71.3430915 C120.027729,72.5132351 120.960521,73.4415715 122.136648,74.1281008 C123.312776,74.8146301 124.590295,75.1578947 125.969203,75.1578947 Z M125.969203,73.8896756 C124.813353,73.8896756 123.745375,73.6022126 122.765269,73.0272866 C121.785162,72.4523606 121.007836,71.6762104 120.433291,70.6988362 C119.858745,69.721462 119.571473,68.651085 119.571473,67.4877053 C119.571473,66.3243257 119.860435,65.2556397 120.43836,64.2816473 C121.016285,63.307655 121.795301,62.5365778 122.775408,61.9684156 C123.755514,61.4002535 124.820113,61.1161724 125.969203,61.1161724 C126.84792,61.1161724 127.672561,61.2801954 128.443128,61.6082414 C129.213694,61.9362874 129.89301,62.3945373 130.481074,62.9829909 C131.069138,63.5714446 131.527084,64.2512101 131.854913,65.0222873 C132.182741,65.7933646 132.346656,66.6151706 132.346656,67.4877053 C132.346656,68.6443212 132.061073,69.7146982 131.489907,70.6988362 C130.918742,71.6829743 130.146485,72.4608154 129.173138,73.0323594 C128.199791,73.6039035 127.131813,73.8896756 125.969203,73.8896756 Z M123.931258,71.7286302 L123.931258,68.2384911 L124.722102,68.2384911 C125.262851,68.2384911 125.683621,68.3856045 125.984412,68.6798313 C126.285203,68.9740582 126.682315,69.5608209 127.175748,70.4401195 L127.175748,70.4401195 L127.905759,71.7286302 L129.517865,71.7286302 L128.52424,70.1256012 C128.111919,69.476273 127.777331,69.0028045 127.520476,68.7051957 C127.26362,68.407587 126.962829,68.1911442 126.618102,68.0558675 C127.327834,67.994993 127.89562,67.7430401 128.321459,67.3000089 C128.747299,66.8569777 128.960218,66.310798 128.960218,65.6614698 C128.960218,65.2759312 128.84193,64.9073021 128.605352,64.5555827 C128.368775,64.2038632 128.057844,63.9434556 127.672561,63.7743597 C127.435984,63.6593745 127.145331,63.5849723 126.800604,63.5511531 C126.455877,63.5173339 125.99962,63.5004244 125.431835,63.5004244 L125.431835,63.5004244 L122.603044,63.5004244 L122.603044,71.7286302 L123.931258,71.7286302 Z M125.553503,67.092021 L123.931258,67.092021 L123.931258,64.626603 L125.452113,64.626603 C126.10777,64.626603 126.621481,64.7026961 126.993246,64.8548824 C127.36501,65.0070687 127.550893,65.3401876 127.550893,65.8542391 C127.550893,66.1518478 127.47316,66.393655 127.317695,66.5796604 C127.16223,66.7656659 126.937481,66.8975607 126.643449,66.9753448 C126.349417,67.0531289 125.986102,67.092021 125.553503,67.092021 L125.553503,67.092021 Z" id="®" fill="#FFFFFF"></path>
        </g>
    </g>
</svg>

<?xml version="1.0" encoding="UTF-8" standalone="no"?>
<svg
   xmlns:dc="http://purl.org/dc/elements/1.1/"
   xmlns:cc="http://creativecommons.org/ns#"
   xmlns:rdf="http://www.w3.org/1999/02/22-rdf-syntax-ns#"
   xmlns:svg="http://www.w3.org/2000/svg"
   xmlns="http://www.w3.org/2000/svg"
   xmlns:sodipodi="http://sodipodi.sourceforge.net/DTD/sodipodi-0.dtd"
   xmlns:inkscape="http://www.inkscape.org/namespaces/inkscape"
   width="500"
   height="200"
   viewBox="0 0 500 200"
   version="1.1"
   id="svg115"
   sodipodi:docname="atari7800.svg"
   inkscape:version="0.92.5 (2060ec1f9f, 2020-04-08)">
  <metadata
     id="metadata121">
    <rdf:RDF>
      <cc:Work
         rdf:about="">
        <dc:format>image/svg+xml</dc:format>
        <dc:type
           rdf:resource="http://purl.org/dc/dcmitype/StillImage" />
        <dc:title>mainlogo</dc:title>
      </cc:Work>
    </rdf:RDF>
  </metadata>
  <defs
     id="defs119" />
  <sodipodi:namedview
     pagecolor="#ffffff"
     bordercolor="#666666"
     borderopacity="1"
     objecttolerance="10"
     gridtolerance="10"
     guidetolerance="10"
     inkscape:pageopacity="0"
     inkscape:pageshadow="2"
     inkscape:window-width="1366"
     inkscape:window-height="740"
     id="namedview117"
     showgrid="false"
     inkscape:pagecheckerboard="true"
     inkscape:zoom="1.2296053"
     inkscape:cx="237.5"
     inkscape:cy="51"
     inkscape:window-x="0"
     inkscape:window-y="0"
     inkscape:window-maximized="1"
     inkscape:current-layer="svg115" />
  <title
     id="title91">mainlogo</title>
  <g
     style="fill:none;fill-rule:nonzero;stroke:none;stroke-width:1"
     id="mainlogo"
     transform="matrix(1.0394123,0,0,1.0394123,2.4277833,58.211778)">
    <g
       style="fill:#ffffff"
       transform="translate(0,59.847952)"
       id="Group">
      <path
         inkscape:connector-curvature="0"
         id="Shape"
         d="m 12.225684,1.7982222 c 1.610049,-2.05988301 4.942606,-2.4117333 6.917866,-0.6836585 0.808365,0.6814316 1.373998,1.6200702 1.663495,2.6288561 3.656571,12.5842152 7.329843,25.1617492 10.98196,37.7448502 -2.157867,0.0022 -4.31796,-0.0033 -6.474713,0.0022 -1.017694,-3.468397 -2.012005,-6.944589 -3.016337,-10.41744 -4.174325,-0.01113 -8.34531,-0.0033 -12.5185213,-0.0056 -1.0210339,3.471738 -2.0298198,6.946817 -3.034152,10.423008 -2.1467321,-0.0078 -4.2934642,-0.0022 -6.44019633,-0.0045 C 3.7801637,29.484163 7.2585823,17.477829 10.749249,5.4792888 c 0.414203,-1.253745 0.5712,-2.6544655 1.476435,-3.6810666 m 3.810227,7.7117565 C 14.504917,14.723153 13.006213,19.945235 11.48524,25.161749 c 3.033038,0.01448 6.064963,0.0045 9.096888,0.0045 C 19.064495,19.947461 17.554657,14.727607 16.035911,9.5099787 Z" />
      <path
         inkscape:connector-curvature="0"
         id="path94"
         d="m 57.691199,2.0687906 c 1.124585,-1.63120464 3.299153,-2.42286779 5.214287,-1.91958826 1.751458,0.40418244 3.093165,1.91402106 3.555247,3.61425956 3.65323,12.5741941 7.319822,25.1450471 10.973052,37.7192411 -2.161207,0.01447 -4.3213,0 -6.482507,0.0089 -1.004332,-3.472852 -1.998643,-6.949043 -3.011883,-10.420781 -4.166531,0.0022 -8.331948,-0.0078 -12.498479,0.0033 -0.995425,3.475078 -2.022026,6.942362 -3.018564,10.416327 -2.144505,0.0033 -4.28901,-0.0022 -6.432402,0.0033 C 49.462801,29.424037 52.975737,17.363143 56.475311,5.3022502 56.84275,4.2110689 56.985271,3.0107695 57.691199,2.0687906 M 57.16565,25.166203 c 3.020791,0.0045 6.039354,0.0011 9.060145,0.0011 C 64.723751,19.939667 63.196097,14.715359 61.698506,9.4854828 60.189781,14.713132 58.666581,19.936327 57.16565,25.166203 Z" />
      <path
         inkscape:connector-curvature="0"
         id="Path"
         d="m 26.957744,0.08684912 c 7.808627,0 15.615027,0 23.421427,0 0,2.10664788 0,4.20995548 0,6.31660338 -2.874929,0.00223 -5.748744,-0.00334 -8.622559,0.00223 0,11.6934545 0.0011,23.3902495 -0.0011,35.0837045 -2.057657,0 -4.118653,0 -6.176309,0 0,-11.693455 -0.0022,-23.389137 0.0011,-35.0837045 -2.874928,-0.00557 -5.74763,0 -8.623672,-0.00223 0.0011,-2.1066479 -0.0011,-4.2110689 0.0011,-6.31660338 z" />
      <path
         inkscape:connector-curvature="0"
         id="path97"
         d="m 84.297093,0.34405613 c 0.593469,-0.20487485 1.227022,-0.27502221 1.852781,-0.25943391 2.461839,0.0089076 4.924791,0.0011135 7.384402,0.0033404 4.146489,0.07571462 8.103694,2.64778478 9.897464,6.38006998 1.24149,2.4228679 1.37065,5.2398974 1.05666,7.8977024 -0.2149,2.783626 -1.38179,5.565025 -3.52184,7.410012 -1.131269,1.006559 -2.537556,1.61673 -3.74565,2.513057 -0.66473,0.50662 -0.69702,1.488683 -0.354077,2.19127 3.266867,5.042816 6.662887,10.008805 9.998787,15.00931 -2.43846,0.0045 -4.87914,-0.0056 -7.318712,0.0045 -3.193376,-4.796744 -6.353347,-9.617984 -9.533361,-14.421408 -0.935299,-1.367317 -1.189165,-3.177787 -0.630213,-4.737731 0.437586,-1.195846 1.483115,-2.072131 2.647784,-2.525305 2.223561,-0.848449 4.415944,-2.181249 5.64742,-4.27899 0.937525,-1.577759 0.888533,-3.52407 0.466536,-5.249918 -0.493259,-2.2413751 -2.676735,-4.0039668 -4.984917,-3.9260253 -1.594461,0.011134 -3.190035,-0.00891 -4.782269,0.00779 -0.721516,-0.016702 -1.40072,0.6101708 -1.391813,1.3405941 -0.0067,11.2625492 0.0045,22.5250992 -0.0022,33.7898752 -2.074357,-0.0045 -4.147602,0 -6.22196,-0.0022 -0.0045,-12.125473 0.0022,-24.250947 -0.0045,-36.3775335 0.01336,-2.1255765 1.524313,-4.12421971 3.539658,-4.76890742 z" />
      <path
         inkscape:connector-curvature="0"
         id="path99"
         d="m 110.12691,0.08684912 c 2.18348,0 4.36473,0 6.54709,0 -0.001,13.80232988 0.004,27.60131888 -0.003,41.40476188 -2.18014,-0.0056 -4.36138,0 -6.54375,-0.0022 0,-13.80233 0,-27.602432 0,-41.40253488 z" />
    </g>
    <path
       style="fill:#a7061c"
       inkscape:connector-curvature="0"
       id="path102"
       d="M 274.48024,48.242494 C 281.8815,43.869841 286.49801,36.466402 286.49801,28.248008 286.49801,8.8394457 266.05028,0 247.05168,0 c -19.00139,0 -39.44632,8.8394457 -39.44632,28.248008 0,8.221204 4.6151,15.621833 12.01497,19.994486 -10.52659,4.888321 -16.41565,13.212097 -16.41565,23.583096 0,19.549071 22.05384,29.77675 43.8414,29.77675 21.78755,0 43.8428,-10.227679 43.8428,-29.77675 0.007,-10.370999 -5.88346,-18.69899 -16.40864,-23.583096 z m -27.42716,-9.519377 c -6.25685,-0.247643 -8.78874,-5.916985 -8.78874,-9.772563 0,-3.855577 1.14007,-11.474574 8.78874,-11.16578 7.64867,0.308793 8.78874,7.310203 8.78874,11.16578 -0.003,3.855578 -2.53188,10.020206 -8.78874,9.772563 z m 0,20.729851 c 5.39434,0 9.781,4.998689 9.781,9.441596 0,4.305207 -0.74051,11.830582 -9.781,11.989165 -9.04048,0.158583 -9.78099,-7.676932 -9.78099,-11.989165 0,-4.442907 4.38666,-9.441596 9.78099,-9.441596 z" />
    <path
       style="fill:#a7061c"
       inkscape:connector-curvature="0"
       id="path104"
       d="M 365.80911,16.47912 C 358.1643,5.7002718 346.93275,0 333.33256,0 c -13.60019,0 -24.83174,5.6974714 -32.47655,16.47912 -6.42673,9.067787 -9.96712,21.256651 -9.96712,34.32345 0,25.285067 13.12355,50.79977 42.44897,50.79977 29.32541,0 42.45161,-25.516103 42.45161,-50.79977 -0.008,-13.068199 -3.54966,-25.257063 -9.98036,-34.32345 z m -31.774,57.286962 c -9.74871,0 -8.27092,-15.10485 -8.27092,-22.394667 0,-7.22059 -1.47274,-22.143345 8.27092,-22.143345 9.74871,0 8.26966,14.922755 8.26966,22.143345 0.003,7.289817 1.47905,22.394667 -8.26966,22.394667 z" />
    <path
       style="fill:#a7061c"
       inkscape:connector-curvature="0"
       id="path106"
       d="M 453.49332,16.47912 C 445.84851,5.7002718 434.61696,0 421.01677,0 c -13.60019,0 -24.83174,5.6974714 -32.47655,16.47912 -6.42673,9.067787 -9.96712,21.256651 -9.96712,34.32345 0,25.285067 13.12355,50.79977 42.44897,50.79977 29.32541,0 42.45161,-25.516103 42.45161,-50.79977 -0.008,-13.068199 -3.54966,-25.257063 -9.98036,-34.32345 z m -31.774,57.286962 c -9.74871,0 -8.27092,-15.10485 -8.27092,-22.394667 0,-7.22059 -1.47273,-22.143345 8.27092,-22.143345 9.74871,0 8.26966,14.922755 8.26966,22.143345 0.003,7.289817 1.47905,22.394667 -8.26966,22.394667 z" />
    <polygon
       style="fill:#a7061c"
       points="136.02651,100.21053 171.82563,100.21053 214.33918,0 125.26316,0 125.26316,30.977309 167.64597,30.977309 "
       id="polygon108" />
    <path
       style="fill:#ffffff"
       inkscape:connector-curvature="0"
       id="path110"
       d="M 460.74003,8.8786167 V 1.3223472 h -2.8336 V 0 h 7.36737 v 1.3223472 h -3.21142 v 7.5562695 z m 5.28939,0 V 0 h 2.26688 L 470.56318,7.178456 472.83006,0 h 2.07798 v 8.8786167 h -1.32235 V 1.3223472 l -2.26688,7.5562695 h -1.32235 l -2.45578,-7.5562695 v 7.5562695 z" />
    <path
       style="fill:#ffffff"
       inkscape:connector-curvature="0"
       id="®"
       d="m 125.9692,75.157895 c 1.06122,0 2.05147,-0.196152 2.97074,-0.588454 0.91927,-0.392302 1.73546,-0.948628 2.44858,-1.668976 0.71311,-0.720349 1.26231,-1.543846 1.64759,-2.470491 0.38528,-0.926646 0.57792,-1.907402 0.57792,-2.942269 0,-1.04163 -0.19602,-2.027459 -0.58806,-2.957487 -0.39204,-0.930027 -0.93955,-1.74676 -1.64252,-2.450199 -0.70298,-0.703439 -1.52086,-1.25131 -2.45365,-1.643612 -0.93279,-0.392303 -1.91966,-0.588454 -2.9606,-0.588454 -1.03418,0 -2.01597,0.196151 -2.94539,0.588454 -0.92941,0.392302 -1.75236,0.943555 -2.46885,1.653758 -0.71649,0.710202 -1.27076,1.523554 -1.6628,2.440053 -0.39205,0.9165 -0.58807,1.902329 -0.58807,2.957487 0,1.400114 0.34473,2.685243 1.03418,3.855386 0.68946,1.170144 1.62225,2.09848 2.79838,2.78501 1.17613,0.686529 2.45364,1.029794 3.83255,1.029794 z m 0,-1.268219 c -1.15585,0 -2.22383,-0.287463 -3.20393,-0.862389 -0.98011,-0.574926 -1.75743,-1.351077 -2.33198,-2.328451 -0.57454,-0.977374 -0.86182,-2.047751 -0.86182,-3.211131 0,-1.163379 0.28896,-2.232065 0.86689,-3.206058 0.57792,-0.973992 1.35694,-1.745069 2.33705,-2.313231 0.9801,-0.568163 2.0447,-0.852244 3.19379,-0.852244 0.87872,0 1.70336,0.164023 2.47393,0.492069 0.77056,0.328046 1.44988,0.786296 2.03794,1.37475 0.58807,0.588454 1.04601,1.268219 1.37384,2.039296 0.32783,0.771078 0.49175,1.592884 0.49175,2.465418 0,1.156616 -0.28559,2.226993 -0.85675,3.211131 -0.57117,0.984138 -1.34342,1.761979 -2.31677,2.333523 -0.97335,0.571544 -2.04133,0.857317 -3.20394,0.857317 z m -2.03794,-2.161046 v -3.490139 h 0.79084 c 0.54075,0 0.96152,0.147113 1.26231,0.44134 0.30079,0.294227 0.69791,0.88099 1.19134,1.760288 v 0 l 0.73001,1.288511 h 1.6121 l -0.99362,-1.603029 c -0.41232,-0.649328 -0.74691,-1.122797 -1.00376,-1.420405 -0.25686,-0.297609 -0.55765,-0.514052 -0.90238,-0.649328 0.70973,-0.06088 1.27752,-0.312828 1.70336,-0.755859 0.42584,-0.443031 0.63876,-0.989211 0.63876,-1.638539 0,-0.385539 -0.11829,-0.754168 -0.35487,-1.105887 -0.23658,-0.35172 -0.54751,-0.612127 -0.93279,-0.781223 -0.23658,-0.114986 -0.52723,-0.189388 -0.87196,-0.223207 -0.34472,-0.03382 -0.80098,-0.05073 -1.36876,-0.05073 v 0 h -2.8288 v 8.228206 z m 1.62224,-4.636609 h -1.62224 v -2.465418 h 1.52085 c 0.65566,0 1.16937,0.07609 1.54114,0.228279 0.37176,0.152187 0.55764,0.485306 0.55764,0.999357 0,0.297609 -0.0777,0.539416 -0.23319,0.725421 -0.15547,0.186006 -0.38022,0.317901 -0.67425,0.395685 -0.29403,0.07778 -0.65735,0.116676 -1.08995,0.116676 z" />
  </g>
</svg>
